svg/u1f469_1f3fc_200d_1f3a8.svg

<svg viewBox="0 0 128 128" xmlns="http://www.w3.org/2000/svg">
  <g id="hairGroup_1_">
    <path id="hair_10_" d="M57.15,2.83c-41.01,0-40.68,37.92-40.68,38.52c0,24.56,1.88,59.25,11.71,72.9 c3.9,5.41,11.43,5.71,11.43,5.71l16.97-0.03l16.97,0.03c0,0,7.54-0.3,11.43-5.71c9.83-13.65,11.71-48.34,11.71-72.9 C96.68,40.74,98.16,2.83,57.15,2.83z" fill="#AB872F"/>
    <radialGradient id="hairHighlights_2_" cx="56.5793" cy="69.608" gradientTransform="matrix(1 0 0 -1.1901 0 141.2304)" gradientUnits="userSpaceOnUse" r="47.5316">
      <stop offset="0.7936" stop-color="#BFA055" stop-opacity="0"/>
      <stop offset="1" stop-color="#BFA055"/>
    </radialGradient>
    <path id="hairHighlights_1_" d="M57.15,2.83c-41.01,0-40.68,37.92-40.68,38.52 c0,24.56,1.88,59.25,11.71,72.9c3.9,5.41,11.43,5.71,11.43,5.71l16.97-0.03l16.97,0.03c0,0,7.54-0.3,11.43-5.71 c9.83-13.65,11.71-48.34,11.71-72.9C96.68,40.74,98.16,2.83,57.15,2.83z" fill="url(#hairHighlights_2_)"/>
  </g>
  <g id="shirt_1_">
    <linearGradient id="SVGID_1_" gradientTransform="matrix(1 0 0 -1 0 128)" gradientUnits="userSpaceOnUse" x1="4.115" x2="108.115" y1="18.201" y2="18.201">
      <stop offset="5.160877e-04" stop-color="#E3E3E3"/>
      <stop offset="1" stop-color="#C9C9C9"/>
    </linearGradient>
    <path d="M56.25,95.68c-0.04,0-0.09,0-0.13,0c-25.49,0.03-52,7.28-52,25.06v3.18h1.5h1.5h98h1.5h1.5 v-3.18C108.11,103.98,81.85,95.68,56.25,95.68z" fill="url(#SVGID_1_)"/>
  </g>
  <path id="neck" d="M64.89,90.08H46.73v9.98c0,4.51,3.7,8.17,8.26,8.17h1.65c4.56,0,8.26-3.66,8.26-8.17v-9.98 H64.89z" fill="#C48E6A"/>
  <g id="scarf_1_">
    <linearGradient id="SVGID_2_" gradientTransform="matrix(1 0 0 -1 0 128)" gradientUnits="userSpaceOnUse" x1="67.6066" x2="64.0823" y1="36.3734" y2="21.6888">
      <stop offset="0" stop-color="#0053AB"/>
      <stop offset="0.3617" stop-color="#0068BF"/>
      <stop offset="0.9995" stop-color="#008EE3"/>
    </linearGradient>
    <path d="M71.54,95.16c1.45,2.18,1.64,7.04-2.61,11.15c-2.49,2.4-6.74,2.73-10.03,2.64 c-0.67-0.02-1.44-0.16-1.76-0.81c-0.36-0.73,0.11-1.68,0.76-2.1c0.65-0.42,1.42-0.51,2.14-0.75c1.51-0.51,3.9-3.31,4.46-7.46 c0.36-2.67,0.13-3.89,0.19-4.74C64.73,92.42,70.44,93.51,71.54,95.16z" fill="url(#SVGID_2_)"/>
    <linearGradient id="SVGID_3_" gradientTransform="matrix(1 0 0 -1 0 128)" gradientUnits="userSpaceOnUse" x1="38.4307" x2="59.1067" y1="31.6945" y2="17.7316">
      <stop offset="5.160877e-04" stop-color="#008EE3"/>
      <stop offset="1" stop-color="#0053AB"/>
    </linearGradient>
    <path d="M41.35,106.62c5.15,3.8,11.58,5.17,17.75,3.6c0.85-0.22,1.86-0.68,1.91-1.56 c0.06-1.18-1.55-2.4-2.7-2.57c-2.95-0.44-6.33-1.94-8.23-4.25c-1.68-2.05-2.43-3.61-2.37-7.37c0.02-1.47-6.69-0.18-8.4,0.71 C36.73,96.51,35.37,102.2,41.35,106.62z" fill="url(#SVGID_3_)"/>
    <linearGradient id="SVGID_4_" gradientTransform="matrix(0.812 -7.600000e-03 7.600000e-03 -0.8119 317.5721 146.4201)" gradientUnits="userSpaceOnUse" x1="-317.7988" x2="-317.7988" y1="47.3262" y2="32.5271">
      <stop offset="0" stop-color="#0053AB"/>
      <stop offset="0.9995" stop-color="#008EE3"/>
    </linearGradient>
    <path d="M56.89,113.5c0.19,4.44,2.5,5.89,1.14,9.45c2.23-1.42,3.77-3.82,4.41-6.39 c0.64-2.57,0.41-5.3-0.38-7.8c-0.22-0.71-0.51-1.44-1.07-1.93C58.25,104.43,56.82,111.83,56.89,113.5z" fill="url(#SVGID_4_)"/>
    <linearGradient id="SVGID_5_" gradientTransform="matrix(1 0 0 -1 0 128)" gradientUnits="userSpaceOnUse" x1="62.84" x2="72.1136" y1="20.5205" y2="14.2037">
      <stop offset="0" stop-color="#0053AB"/>
      <stop offset="0.9995" stop-color="#008EE3"/>
    </linearGradient>
    <path d="M65.92,114.04c4.41,1.9,6.73,0.39,9.61,4.98c0.22-3.24-1.03-6.5-3.11-8.97 s-4.96-4.2-8.02-5.19c-0.88-0.28-1.81-0.51-2.71-0.3C57.29,105.59,61.95,112.33,65.92,114.04z" fill="url(#SVGID_5_)"/>
    <ellipse cx="59.41" cy="107.4" fill="#1565C0" rx="5.3" ry="3.35" transform="matrix(0.9787 -0.2052 0.2052 0.9787 -20.7744 14.4761)"/>
  </g>
  <path id="head" d="M56.12,16.04c-17.2,0-33.13,12.79-33.13,39.91c0,21.79,13.49,34.67,25.23,38.83 c2.8,0.99,5.5,1.49,7.9,1.49c2.38,0,5.07-0.49,7.85-1.47c11.76-4.14,25.28-17.03,25.28-38.84C89.25,28.83,73.32,16.04,56.12,16.04z" fill="#E0BB95"/>
  <path id="nose" d="M60.17,68.05c-0.1-0.04-0.21-0.07-0.32-0.08h-6.99c-0.11,0.01-0.21,0.04-0.32,0.08 c-0.63,0.26-0.98,0.91-0.68,1.61s1.69,2.66,4.49,2.66s4.19-1.96,4.49-2.66C61.15,68.97,60.81,68.31,60.17,68.05z" fill="#C48E6A"/>
  <g id="eyes">
    <ellipse cx="40.12" cy="58.87" fill="#5D4037" rx="4.87" ry="5.04"/>
    <ellipse cx="72.61" cy="58.87" fill="#5D4037" rx="4.87" ry="5.04"/>
  </g>
  <g id="eyebrows">
    <path d="M47.35,49.82c-0.93-1.23-3.07-3.01-7.23-3.01s-6.31,1.79-7.23,3.01c-0.41,0.54-0.31,1.17-0.02,1.55 c0.26,0.35,1.04,0.68,1.9,0.39s2.54-1.16,5.35-1.18c2.81,0.02,4.49,0.89,5.35,1.18s1.64-0.03,1.9-0.39 C47.65,50.99,47.76,50.36,47.35,49.82z" fill="#AB872F"/>
    <path d="M79.85,49.82c-0.93-1.23-3.07-3.01-7.23-3.01s-6.31,1.79-7.23,3.01c-0.41,0.54-0.31,1.17-0.02,1.55 c0.26,0.35,1.04,0.68,1.9,0.39s2.54-1.16,5.35-1.18c2.81,0.02,4.49,0.89,5.35,1.18s1.64-0.03,1.9-0.39 C80.14,50.99,80.25,50.36,79.85,49.82z" fill="#AB872F"/>
  </g>
  <path id="mouth" d="M64.43,76.14c-3.15,1.87-13.46,1.87-16.61,0c-1.81-1.07-3.65,0.57-2.9,2.21 c0.74,1.61,6.37,5.36,11.23,5.36s10.42-3.75,11.16-5.36C68.06,76.71,66.24,75.06,64.43,76.14z" fill="#6D4C41"/>
  <g id="paint_x5F_gear">
    <path d="M109.33,66.8l-3.58,12.62l1.03,0.23c1.1,0.25,2.09,0.69,3.05,1.11c0.35,0.15,0.69,0.3,1.02,0.44 l1.01,0.41l3.96-12.89L109.33,66.8z" fill="#A7A9AC"/>
    <path d="M111.61,79.35c-0.32-0.13-0.64-0.27-0.97-0.42c-1-0.44-2.13-0.94-3.42-1.23l-0.93-0.21l-13.13,46.33 h5.73l13.56-44.13L111.61,79.35z" fill="#603913"/>
    <g>
      <linearGradient id="SVGID_6_" gradientTransform="matrix(1 0 0 -1 0 128)" gradientUnits="userSpaceOnUse" x1="100.3403" x2="99.7822" y1="39.0083" y2="-6.48">
        <stop offset="1.800000e-03" stop-color="#FFDBB5"/>
        <stop offset="1" stop-color="#A97C50"/>
      </linearGradient>
      <path d="M105.54,89.1c-3.07,0-6.43,0.67-10.01,2.14c-7.87,3.25-13.02,10.14-16.36,17.53 c-1.7,3.78-2.55,7.49-2.93,11.46c-0.12,1.22-0.14,2.42-0.03,3.7h0.98h0.98h38.76h1.18h1.14C129.62,107.2,121.53,89.1,105.54,89.1z " fill="url(#SVGID_6_)"/>
    </g>
    <path d="M98.95,99.02c-0.34-1.75-1.85-3.31-3.67-3.43c-2.08-0.14-3.15,1.66-3.67,3.41 c-0.52,1.75-0.55,3.76,0.65,5.25c1.32,1.64,3.72,1.57,5.01-0.04c0.47-0.58,0.82-1.32,1.04-2.1 C98.94,101.25,99.17,100.12,98.95,99.02z" fill="#00AEEF"/>
    <path d="M110.32,93.93c-1.73-1.12-4.33-0.09-5.85,0.97c-1.71,1.18-2.96,3.48-2.02,5.54 c0.93,2.02,3.41,2.62,5.36,1.83c1.71-0.7,3.65-2.57,3.6-4.54C111.9,96.35,111.76,94.85,110.32,93.93z" fill="#00C853"/>
    <path d="M115.48,103.22c-1.68-0.09-3.47,0.7-4.76,1.74c-1.41,1.13-2.4,2.84-1.49,4.61 c0.84,1.61,2.79,2.18,4.48,1.99c1.59-0.17,3.12-1.09,4-2.43c0.32-0.48,0.54-1.05,0.59-1.62c0.12-0.31,0.22-0.64,0.26-1 C118.8,104.61,117.26,103.32,115.48,103.22z" fill="#FFF200"/>
    <path d="M111.88,116.54c-0.81-1.25-2.38-1.71-3.78-1.98c-1.61-0.31-3.49-0.16-4.75,1.03 c-1.48,1.39-1.19,3.58,0.46,4.67c0.34,0.22,0.74,0.41,1.17,0.57c1.48,1.12,3.4,0.79,5.02,0.19c1.25-0.47,2.28-1.57,2.34-2.85 c0-0.02,0.01-0.03,0.01-0.05C112.43,117.44,112.23,116.91,111.88,116.54z" fill="#EF4136"/>
    <path d="M119.5,68.21c-0.15,0.55-0.39,1.08-0.73,1.68c-0.16,0.28-0.34,0.55-0.53,0.8 c-1.39,1.84-3.51,2.91-5.66,2.91c-0.68,0-1.35-0.1-2.01-0.32c-2.32-0.77-3.9-2.5-4.39-4.75c-0.09-0.37-0.14-0.75-0.16-1.15 c-0.07-1.15,0.19-2.38,0.78-3.77c0.52-1.22,1.24-2.29,1.93-3.33c0.52-0.79,1.01-1.54,1.43-2.33c0.32-0.64,1.48-3.35,1.94-4.86 c0.17-0.54,0.61-0.94,1.16-1.04c0.55-0.11,1.12,0.09,1.47,0.53l0.04,0.04C117.32,55.77,121.59,61.02,119.5,68.21z" fill="#00AEEF"/>
    <path d="M118.24,70.69c-1.39,1.84-3.51,2.91-5.66,2.91c-0.68,0-1.35-0.1-2.01-0.32 c-2.32-0.77-3.9-2.5-4.39-4.75c4.21,2.72,4.77-5.36,9.23-5.3C119.28,63.28,115.44,69.8,118.24,70.69z" fill="#D1D3D4"/>
  </g>
  <g id="hairGroup">
    <path id="hair_5_" d="M57.15,2.83c-41.01,0-40.68,37.92-40.68,38.52c0,7.76,0.19,16.53,0.75,25.32l6.72-0.02 c-0.06-2.92,1.99-20.97,8.08-22.34c22.36-5.03,35.01-16.89,35.01-16.89c3.29,7.18,13.58,14.19,17.27,16.86 c3.03,2.19,3.96,18.55,3.9,22.38h7.71c0-0.05,0.02-0.1,0.02-0.16c0.56-8.75,0.74-17.46,0.74-25.17 C96.68,40.74,98.16,2.83,57.15,2.83z" fill="#AB872F"/>
    <radialGradient id="hairHighlights_3_" cx="56.9126" cy="65.5835" gradientTransform="matrix(1 0 0 -1.2135 0 142.0051)" gradientUnits="userSpaceOnUse" r="49.788">
      <stop offset="0.7945" stop-color="#BFA055" stop-opacity="0"/>
      <stop offset="1" stop-color="#BFA055"/>
    </radialGradient>
    <path id="hairHighlights" d="M57.15,2.83c-41.01,0-40.68,37.92-40.68,38.52 c0,7.76,0.19,16.53,0.75,25.32l6.72-0.02c-0.06-2.92,1.99-20.97,8.08-22.34c22.36-5.03,35.01-16.89,35.01-16.89 c3.29,7.18,13.58,14.19,17.27,16.86c3.03,2.19,3.96,18.55,3.9,22.38h7.71c0-0.05,0.02-0.1,0.02-0.16 c0.56-8.75,0.74-17.46,0.74-25.17C96.68,40.74,98.16,2.83,57.15,2.83z" fill="url(#hairHighlights_3_)"/>
  </g>
</svg>

<svg viewBox="0 0 128 128" xmlns="http://www.w3.org/2000/svg">
  <defs>
    <linearGradient id="SVGID_1_" gradientTransform="matrix(1 0 0 -1 0 0)" gradientUnits="userSpaceOnUse" x1="4.115" x2="108.115" y1="-109.799" y2="-109.799">
      <stop offset="5.160877e-04" stop-color="#E3E3E3"/>
      <stop offset="1" stop-color="#C9C9C9"/>
    </linearGradient>
    <linearGradient id="SVGID_2_" gradientTransform="matrix(1 0 0 -1 0 0)" gradientUnits="userSpaceOnUse" x1="67.6066" x2="64.0823" y1="-91.6266" y2="-106.3112">
      <stop offset="0" stop-color="#0053AB"/>
      <stop offset="0.3617" stop-color="#0068BF"/>
      <stop offset="0.9995" stop-color="#008EE3"/>
    </linearGradient>
    <linearGradient id="SVGID_3_" gradientTransform="matrix(1 0 0 -1 0 0)" gradientUnits="userSpaceOnUse" x1="38.4307" x2="59.1067" y1="-96.3055" y2="-110.2684">
      <stop offset="5.160877e-04" stop-color="#008EE3"/>
      <stop offset="1" stop-color="#0053AB"/>
    </linearGradient>
    <linearGradient id="SVGID_4_" gradientTransform="matrix(0.812 -0.0076 0.0076 -0.8119 0 0)" gradientUnits="userSpaceOnUse" x1="75.022197" x2="75.022197" y1="-136.693432" y2="-151.492532">
      <stop offset="0" stop-color="#0053AB"/>
      <stop offset="0.9995" stop-color="#008EE3"/>
    </linearGradient>
    <linearGradient id="SVGID_5_" gradientTransform="matrix(1 0 0 -1 0 0)" gradientUnits="userSpaceOnUse" x1="62.84" x2="72.1136" y1="-107.4795" y2="-113.7963">
      <stop offset="0" stop-color="#0053AB"/>
      <stop offset="0.9995" stop-color="#008EE3"/>
    </linearGradient>
    <radialGradient id="hairHighlights_2_" cx="56.5793" cy="-49.063036" gradientTransform="matrix(1 0 0 -1.1901 0 0)" gradientUnits="userSpaceOnUse" r="47.5316">
      <stop offset="0.7936" stop-color="#BFA055" stop-opacity="0"/>
      <stop offset="1" stop-color="#BFA055"/>
    </radialGradient>
    <radialGradient id="hairHighlights_3_" cx="56.9126" cy="-51.437596" gradientTransform="matrix(1 0 0 -1.2135 0 0)" gradientUnits="userSpaceOnUse" r="49.788">
      <stop offset="0.7945" stop-color="#BFA055" stop-opacity="0"/>
      <stop offset="1" stop-color="#BFA055"/>
    </radialGradient>
    <linearGradient id="SVGID_6_" gradientTransform="matrix(1 0 0 -1 0 0)" gradientUnits="userSpaceOnUse" x1="100.3403" x2="99.7822" y1="-88.9917" y2="-134.48">
      <stop offset="1.800000e-03" stop-color="#FFDBB5"/>
      <stop offset="1" stop-color="#A97C50"/>
    </linearGradient>
  </defs>
  <path id="hair_10_" d="M57.15,2.83 C16.14,2.83 16.47,40.75 16.47,41.35 C16.47,65.91 18.35,100.6 28.18,114.25 C32.08,119.66 39.61,119.96 39.61,119.96 L56.58,119.93 L73.55,119.96 C73.55,119.96 81.09,119.66 84.98,114.25 C94.81,100.6 96.69,65.91 96.69,41.35 C96.68,40.74 98.16,2.83 57.15,2.83 Z" fill="#AB872F"/>
  <path id="hairHighlights_1_" d="M57.15,2.83 C16.14,2.83 16.47,40.75 16.47,41.35 C16.47,65.91 18.35,100.6 28.18,114.25 C32.08,119.66 39.61,119.96 39.61,119.96 L56.58,119.93 L73.55,119.96 C73.55,119.96 81.09,119.66 84.98,114.25 C94.81,100.6 96.69,65.91 96.69,41.35 C96.68,40.74 98.16,2.83 57.15,2.83 Z" fill="url(#hairHighlights_2_)"/>
  <path d="M56.25,95.68 C56.21,95.68 56.16,95.68 56.12,95.68 C30.63,95.71 4.12,102.96 4.12,120.74 L4.12,123.92 L5.62,123.92 L7.12,123.92 L105.12,123.92 L106.62,123.92 L108.12,123.92 L108.12,120.74 C108.11,103.98 81.85,95.68 56.25,95.68 Z" fill="url(#SVGID_1_)"/>
  <path id="neck" d="M64.89,90.08 L46.73,90.08 L46.73,100.06 C46.73,104.57 50.43,108.23 54.99,108.23 L56.64,108.23 C61.2,108.23 64.9,104.57 64.9,100.06 L64.9,90.08 L64.89,90.08 Z" fill="#C48E6A"/>
  <path d="M71.54,95.16 C72.99,97.34 73.18,102.2 68.93,106.31 C66.44,108.71 62.19,109.04 58.9,108.95 C58.23,108.93 57.46,108.79 57.14,108.14 C56.78,107.41 57.25,106.46 57.9,106.04 C58.55,105.62 59.32,105.53 60.04,105.29 C61.55,104.78 63.94,101.98 64.5,97.83 C64.86,95.16 64.63,93.94 64.69,93.09 C64.73,92.42 70.44,93.51 71.54,95.16 Z" fill="url(#SVGID_2_)"/>
  <path d="M41.35,106.62 C46.5,110.42 52.93,111.79 59.1,110.22 C59.95,110 60.96,109.54 61.01,108.66 C61.07,107.48 59.46,106.26 58.31,106.09 C55.36,105.65 51.98,104.15 50.08,101.84 C48.4,99.79 47.65,98.23 47.71,94.47 C47.73,93 41.02,94.29 39.31,95.18 C36.73,96.51 35.37,102.2 41.35,106.62 Z" fill="url(#SVGID_3_)"/>
  <path d="M56.89,113.5 C57.08,117.94 59.39,119.39 58.03,122.95 C60.26,121.53 61.8,119.13 62.44,116.56 C63.08,113.99 62.85,111.26 62.06,108.76 C61.84,108.05 61.55,107.32 60.99,106.83 C58.25,104.43 56.82,111.83 56.89,113.5 Z" fill="url(#SVGID_4_)"/>
  <path d="M65.92,114.04 C70.33,115.94 72.65,114.43 75.53,119.02 C75.75,115.78 74.5,112.52 72.42,110.05 C70.34,107.58 67.46,105.85 64.4,104.86 C63.52,104.58 62.59,104.35 61.69,104.56 C57.29,105.59 61.95,112.33 65.92,114.04 Z" fill="url(#SVGID_5_)"/>
  <path d="M64.596,106.31 C64.975,108.121 62.961,110.076 60.096,110.676 C57.231,111.277 54.601,110.296 54.222,108.485 C53.842,106.674 55.856,104.72 58.721,104.119 C61.586,103.518 64.216,104.499 64.596,106.31 Z" fill="#1565C0"/>
  <path id="head" d="M56.12,16.04 C38.92,16.04 22.99,28.83 22.99,55.95 C22.99,77.74 36.48,90.62 48.22,94.78 C51.02,95.77 53.72,96.27 56.12,96.27 C58.5,96.27 61.19,95.78 63.97,94.8 C75.73,90.66 89.25,77.77 89.25,55.96 C89.25,28.83 73.32,16.04 56.12,16.04 Z" fill="#E0BB95"/>
  <path id="nose" d="M60.17,68.05 C60.07,68.01 59.96,67.98 59.85,67.97 L52.86,67.97 C52.75,67.98 52.65,68.01 52.54,68.05 C51.91,68.31 51.56,68.96 51.86,69.66 C52.16,70.36 53.55,72.32 56.35,72.32 C59.15,72.32 60.54,70.36 60.84,69.66 C61.15,68.97 60.81,68.31 60.17,68.05 Z" fill="#C48E6A"/>
  <path d="M44.99,58.87 A4.87 5.04 0 1 1 35.25,58.87 A4.87 5.04 0 1 1 44.99,58.87 Z" fill="#5D4037"/>
  <path d="M77.48,58.87 A4.87 5.04 0 1 1 67.74,58.87 A4.87 5.04 0 1 1 77.48,58.87 Z" fill="#5D4037"/>
  <path d="M47.35,49.82 C46.42,48.59 44.28,46.81 40.12,46.81 C35.96,46.81 33.81,48.6 32.89,49.82 C32.48,50.36 32.58,50.99 32.87,51.37 C33.13,51.72 33.91,52.05 34.77,51.76 C35.63,51.47 37.31,50.6 40.12,50.58 C42.93,50.6 44.61,51.47 45.47,51.76 C46.33,52.05 47.11,51.73 47.37,51.37 C47.65,50.99 47.76,50.36 47.35,49.82 Z" fill="#AB872F"/>
  <path d="M79.85,49.82 C78.92,48.59 76.78,46.81 72.62,46.81 C68.46,46.81 66.31,48.6 65.39,49.82 C64.98,50.36 65.08,50.99 65.37,51.37 C65.63,51.72 66.41,52.05 67.27,51.76 C68.13,51.47 69.81,50.6 72.62,50.58 C75.43,50.6 77.11,51.47 77.97,51.76 C78.83,52.05 79.61,51.73 79.87,51.37 C80.14,50.99 80.25,50.36 79.85,49.82 Z" fill="#AB872F"/>
  <path id="mouth" d="M64.43,76.14 C61.28,78.01 50.97,78.01 47.82,76.14 C46.01,75.07 44.17,76.71 44.92,78.35 C45.66,79.96 51.29,83.71 56.15,83.71 C61.01,83.71 66.57,79.96 67.31,78.35 C68.06,76.71 66.24,75.06 64.43,76.14 Z" fill="#6D4C41"/>
  <path d="M109.33,66.8 L105.75,79.42 L106.78,79.65 C107.88,79.9 108.87,80.34 109.83,80.76 C110.18,80.91 110.52,81.06 110.85,81.2 L111.86,81.61 L115.82,68.72 L109.33,66.8 Z" fill="#A7A9AC"/>
  <path d="M111.61,79.35 C111.29,79.22 110.97,79.08 110.64,78.93 C109.64,78.49 108.51,77.99 107.22,77.7 L106.29,77.49 L93.16,123.82 L98.89,123.82 L112.45,79.69 L111.61,79.35 Z" fill="#603913"/>
  <path d="M105.54,89.1 C102.47,89.1 99.11,89.77 95.53,91.24 C87.66,94.49 82.51,101.38 79.17,108.77 C77.47,112.55 76.62,116.26 76.24,120.23 C76.12,121.45 76.1,122.65 76.21,123.93 L77.19,123.93 L78.17,123.93 L116.93,123.93 L118.11,123.93 L119.25,123.93 C129.62,107.2 121.53,89.1 105.54,89.1 Z" fill="url(#SVGID_6_)"/>
  <path d="M98.95,99.02 C98.61,97.27 97.1,95.71 95.28,95.59 C93.2,95.45 92.13,97.25 91.61,99 C91.09,100.75 91.06,102.76 92.26,104.25 C93.58,105.89 95.98,105.82 97.27,104.21 C97.74,103.63 98.09,102.89 98.31,102.11 C98.94,101.25 99.17,100.12 98.95,99.02 Z" fill="#00AEEF"/>
  <path d="M110.32,93.93 C108.59,92.81 105.99,93.84 104.47,94.9 C102.76,96.08 101.51,98.38 102.45,100.44 C103.38,102.46 105.86,103.06 107.81,102.27 C109.52,101.57 111.46,99.7 111.41,97.73 C111.9,96.35 111.76,94.85 110.32,93.93 Z" fill="#00C853"/>
  <path d="M115.48,103.22 C113.8,103.13 112.01,103.92 110.72,104.96 C109.31,106.09 108.32,107.8 109.23,109.57 C110.07,111.18 112.02,111.75 113.71,111.56 C115.3,111.39 116.83,110.47 117.71,109.13 C118.03,108.65 118.25,108.08 118.3,107.51 C118.42,107.2 118.52,106.87 118.56,106.51 C118.8,104.61 117.26,103.32 115.48,103.22 Z" fill="#FFF200"/>
  <path d="M111.88,116.54 C111.07,115.29 109.5,114.83 108.1,114.56 C106.49,114.25 104.61,114.4 103.35,115.59 C101.87,116.98 102.16,119.17 103.81,120.26 C104.15,120.48 104.55,120.67 104.98,120.83 C106.46,121.95 108.38,121.62 110,121.02 C111.25,120.55 112.28,119.45 112.34,118.17 C112.34,118.15 112.35,118.14 112.35,118.12 C112.43,117.44 112.23,116.91 111.88,116.54 Z" fill="#EF4136"/>
  <path d="M119.5,68.21 C119.35,68.76 119.11,69.29 118.77,69.89 C118.61,70.17 118.43,70.44 118.24,70.69 C116.85,72.53 114.73,73.6 112.58,73.6 C111.9,73.6 111.23,73.5 110.57,73.28 C108.25,72.51 106.67,70.78 106.18,68.53 C106.09,68.16 106.04,67.78 106.02,67.38 C105.95,66.23 106.21,65 106.8,63.61 C107.32,62.39 108.04,61.32 108.73,60.28 C109.25,59.49 109.74,58.74 110.16,57.95 C110.48,57.31 111.64,54.6 112.1,53.09 C112.27,52.55 112.71,52.15 113.26,52.05 C113.81,51.94 114.38,52.14 114.73,52.58 L114.77,52.62 C117.32,55.77 121.59,61.02 119.5,68.21 Z" fill="#00AEEF"/>
  <path d="M118.24,70.69 C116.85,72.53 114.73,73.6 112.58,73.6 C111.9,73.6 111.23,73.5 110.57,73.28 C108.25,72.51 106.67,70.78 106.18,68.53 C110.39,71.25 110.95,63.17 115.41,63.23 C119.28,63.28 115.44,69.8 118.24,70.69 Z" fill="#D1D3D4"/>
  <path id="hair_5_" d="M57.15,2.83 C16.14,2.83 16.47,40.75 16.47,41.35 C16.47,49.11 16.66,57.88 17.22,66.67 L23.94,66.65 C23.88,63.73 25.93,45.68 32.02,44.31 C54.38,39.28 67.03,27.42 67.03,27.42 C70.32,34.6 80.61,41.61 84.3,44.28 C87.33,46.47 88.26,62.83 88.2,66.66 L95.91,66.66 C95.91,66.61 95.93,66.56 95.93,66.5 C96.49,57.75 96.67,49.04 96.67,41.33 C96.68,40.74 98.16,2.83 57.15,2.83 Z" fill="#AB872F"/>
  <path id="hairHighlights" d="M57.15,2.83 C16.14,2.83 16.47,40.75 16.47,41.35 C16.47,49.11 16.66,57.88 17.22,66.67 L23.94,66.65 C23.88,63.73 25.93,45.68 32.02,44.31 C54.38,39.28 67.03,27.42 67.03,27.42 C70.32,34.6 80.61,41.61 84.3,44.28 C87.33,46.47 88.26,62.83 88.2,66.66 L95.91,66.66 C95.91,66.61 95.93,66.56 95.93,66.5 C96.49,57.75 96.67,49.04 96.67,41.33 C96.68,40.74 98.16,2.83 57.15,2.83 Z" fill="url(#hairHighlights_3_)"/>
</svg>
